X: 896
T: Görmek İster Gözlerim
C: Tanburî Cemil Bey
O: Turkey
F: http://compmusic.upf.edu/node/140
N: huseyni--sarki--devrihindi--gormek_ister--tanburi_cemil_bey
N: makam= huseyni
N: form= sarki
N: usul= devrihindi = 7/4
M: 7/4
L: 1/16
K: C _2/4B ^3/4f  
Q: 1/4=84
%%MIDI tuningsystem comma53
d4 e4 e4 e2d2 g2{a}fe e6d2  | e2f2 g2a2 =b2a2 g3f gffe e8  | 
w:  ARANAĞME  |   | 
e3f g2a2 g2f2 e2ag =fed2 c3B A2B2  | \
w:   | 
c2d2 e3d d3c c3B cBBA ABcd e4  | 
w:   | 
d4 e4 e4 e2d2 g2{a}fe e6d2  | e2f2 g2a2 =b2a2 g3f gffe e8  | 
w:  ARANAĞME  |   | 
e3f g2a2 g2f2 e2ag =fed2 c3B A2B2  | \
w:   | 
c2d2 e3d d3c c3B cBBA A8  | 
w:   | 
d8 e4 e2d2 g2{a}fe e6z2  | e2=f2 e2f2 e2d2 c2B2 B2A2 A8  | \
w:  Gör mek  is *  *  *  *  *  ter   |  göz *  *  *  le *  rim  *  *  *  her   | 
d8 e4 e2f2 e2d2 f2g2 a2=b2  | 
w:  dem  se ni  *  *  *  her   | 
g2a2 g2f2 f2e2 e6d2 c2B2 A4  | d8 e4 e2d2 g2{a}fe e6z2  | \
w:  dem  *  *  *  se *  ni   SAZ  |  Gör mek  is *  *  *  *  *  ter   | 
e2=f2 e2f2 e2d2 c2B2 B2A2 A8  | 
w:  göz *  *  *  le *  rim  *  *  *  her   | 
d8 e4 e2f2 e2d2 f2g2 a2=b2  | g2a2 g2f2 f2e2 e6fg agfg a4  | 
w:  dem  se ni  *  *  *  her   |  dem  *  *  *  se *  ni   SAZ  | 
a8 a4 a2ga =b2{c'}ba a8  | f3e f4 g4 a3g f3e d8  | \
w:  Yâd  et  Al *  *  *  *  *  *  lah   |  aş *  *  kı na  *  *  *  sen   | 
e2=f2 e2f2 e2d2 e2f2 e2d2 g2f2 e2d2  | 
w:  de  *  *  *  be *  ni  *  *  *  sen   | 
d2c2 c2B2 c2e2 d2e4d2 dccB c4  | (3B2c2d2 (3e2f2g2 (3a2g2=f2 e2ag fed2 edcB c4  | 
w:  de  *  *  *  be *  ni    |  SAZ  | 
d4 e4 e4 e2f2 g2a2 g2f2 e2d2  | (3a2g2=f2 (3f2e2d2 d2c2 c2B2 B2A2 A6B2  | 
w:  Yâd  *  et  Al *  *  *  lah   |  aş *  *  *  *  *  kı *  na  *  *  *  sen   | 
G8 e4 d2ag =fed2 c3B A2d2  | c2d2 c2B2 B2A2 A6a=b agfg a4  | 
w:  de  be ni  *  *  *  *  *  sen   |  de  *  *  *  be *  ni   SAZ  | 
g8 a4 a2ga b2{c'}ba a8  | a2d'2 c'2=b2 b2a2 a2g4f2 agfe d4  | 
w:  Çün ki  söy *  *  *  *  *  *  ler   |  ağ *  *  *  la *  rım  *  *  ben   | 
d4 e4 f4 g4 f2e2 c'3=b a2b2  | g2a2 g2f2 f2e2 e6a=b agfg a4  | 
w:  hep   |  *  *  *  *  se *  ni   SAZ  | 
g8 a4 a2ga b2{c'}ba a8  | a2d'2 c'2=b2 b2a2 a2g4f2 agfe d4  | 
w:  Çün ki  söy *  *  *  *  *  *  ler   |  ağ *  *  *  la *  rım  *  *  ben   | 
d4 e4 f4 g4 f2e2 c'3=b a2b2  | g2a2 g2f2 f2e2 e6fg agfg a4  | 
w:  hep   |  *  *  *  *  se *  ni   SAZ  | 
a8 a4 a2ga =b2{c'}ba a8  | f3e f4 g4 a3g f3e d8  | \
w:  Yâd  et  Al *  *  *  *  *  *  lah   |  aş *  *  kı na  *  *  *  sen   | 
e2=f2 e2f2 e2d2 e2f2 e2d2 g2f2 e2d2  | 
w:  de  *  *  *  be *  ni  *  *  *  sen   | 
d2c2 c2B2 c2e2 d2e4d2 dccB c4  | (3B2c2d2 (3e2f2g2 (3a2g2=f2 e2ag fed2 edcB c4  | 
w:  de  *  *  *  be *  ni    |  SAZ  | 
d4 e4 e4 e2f2 g2a2 g2f2 e2d2  | (3a2g2=f2 (3f2e2d2 d2c2 c2B2 B2A2 A6B2  | 
w:  Yâd  *  et  Al *  *  *  lah   |  aş *  *  *  *  *  kı *  na  *  *  *  sen   | 
G8 e4 d2ag =fed2 c3B A2d2  | c2d2 c2B2 B2A2 A6e=f edcB A4  | 
w:  de  be ni  *  *  *  *  *  sen   |  de  KARAR *  *  be *  ni   SAZ  | 
|


